UI/Travel-Transport-Tracking/SVG/monorail_outline_24px.svg

<svg width="24" height="24" viewBox="0 0 24 24" fill="none" xmlns="http://www.w3.org/2000/svg">
<path d="M17.34 4L19 13.84L18.13 16.42L15.46 13.62L14.87 13H9.12998L8.53998 13.62L5.86998 16.43L4.99998 13.84L6.65998 4H17.34ZM17.34 2H6.65998C6.18206 1.99346 5.7176 2.15829 5.35072 2.46463C4.98384 2.77098 4.7388 3.19858 4.65998 3.67L2.99998 13.51C2.93805 13.8439 2.96214 14.188 3.06998 14.51L4.46998 18.67C4.61138 19.0682 4.87527 19.4114 5.2238 19.6503C5.57233 19.8893 5.98758 20.0117 6.40998 20H6.99998V18.17L9.99998 15H14L17 18.17V20H17.56C17.9822 20.0025 18.3944 19.8713 18.7375 19.6252C19.0806 19.3791 19.337 19.0307 19.47 18.63L20.87 14.47C20.9778 14.148 21.0019 13.8039 20.94 13.47L19.32 3.67C19.2412 3.19858 18.9961 2.77098 18.6292 2.46463C18.2624 2.15829 17.7979 1.99346 17.32 2H17.34ZM15 19V22H13V20L12 19L11 20V22H8.99998V19L11 17H13L15 19ZM16 10H7.99998V8H16V10Z" fill="#0F1621"/>
</svg>

<svg xmlns="http://www.w3.org/2000/svg" width="24" height="24" viewBox="0 0 24 24"><rect width="24" height="24" style="fill:none"/><path d="M17.34,4h0L19,13.84l-.87,2.58-2.67-2.8L14.87,13H9.13l-.59.62L5.87,16.43,5,13.84,6.66,4H17.34m0-2H6.66a2,2,0,0,0-2,1.67L3,13.51a2,2,0,0,0,.07,1l1.4,4.16A2,2,0,0,0,6.41,20H7V18.17L10,15h4l3,3.17V20h.56a2,2,0,0,0,1.91-1.37l1.4-4.16a2,2,0,0,0,.07-1L19.32,3.67a2,2,0,0,0-2-1.67ZM15,19v3H13V20l-1-1-1,1v2H9V19l2-2h2Zm1-9H8V8h8Z"/></svg>
